X:1
T:canon in d
A:Giddily
M: 4/4
L: 1/8
Q:1/4=77
K: D
DF Ad ^CE Ac|DF Bd A,C FA|B,D GB A,D FA|B,D GB CE Ac|
f2 FA e2 EA|d2 FA c2 CE|B2 DG A2 A,D|B2 DG c2 EA|
d2 FA c2 EA|B2 DF A2 CF|G2 B,D F2 A,D|B2 d2 e/2d/2e/2d/2 e/2d/2c|
dc dD CA EF|Dd cB cf ab|gf eg fe dc|BA GF EG FE|
F2 d2 e2 c2|d2 f2 A2 A2|B2 G2 dc BA|GF EB AB AG|
af/2g/2 af/2g/2 a/2A/2B/2c/2 d/2e/2f/2g/2|fd/2e/2 fF/2G/2 A/2B/2A/2G/2 A/2F/2G/2A/2|
GB/2A/2 GF/2E/2 F/2E/2D/2E/2 F/2G/2A/2B/2|GB/2A/2 Bc/2d/2 A/2B/2c/2d/2 e/2f/2g/2a/2|
af/2g/2 af/2g/2 a/2A/2B/2c/2 d/2e/2f/2g/2|fd/2e/2 fF/2G/2 A/2B/2A/2G/2 A/2d/2c/2d/2|
Bd/2c/2 BA/2G/2 A/2G/2F/2G/2 A/2B/2c/2d/2|BB/2c/2 dA/2B/2 c/2d/2e/2d/2 c/2f/2B/2c/2|
d D/2E/2 FE/2D/2 E/2C/2D/2E/2 F/2E/2D/2C/2|DB,/2C/2 DD/2E/2 F/2G/2F/2E/2 F/2d/2c/2d/2|
Bd/2c/2 BA/2G/2 A/2G/2F/2G/2 A/2B/2c/2d/2|Bd/2c/2 dc/2B/2 c/2d/2e/2d/2 c/2d/2B/2c/2|d4|
D/2F/2A/2d/2 A/2F/2D/2F/2 E/2A/2c/2e/2 c/2A/2e/2c/2|F/2B/2d/2f/2 d/2B/2f/2d/2 F/2A/2c/2f/2 c/2A/2f/2c/2|
B/2d/2g/2b/2 g/2d/2b/2g/2 A/2d/2f/2a/2 f/2d/2a/2f/2|B/2d/2g/2b/2 a/2d/2b/2B/2 c/2A/2c/2e/2 c/2A/2e/2c/2|
d/2F/2A/2d/2 c/2A/2f/2d/2 e/2E/2A/2c/2 d/2A/2G/2c/2|d/2f/2d/2b/2 f/2d/2e/2d/2 c/2A/2c/2f/2 a/2f/2c/2A/2|
B/2G/2B/2d/2 g/2d/2B/2G/2 A/2F/2A/2d/2 f/2d/2A/2F/2|B/2G/2B/2d/2 g/2d/2B/2G/2 c/2A/2c/2e/2 a/2e/2c/2A/2|
d/2A/2d/2f/2 a/2f/2d/2A/2 c/2A/2e/2A/2 a/2A/2c/2e/2|d/2B/2F/2D/2 F/2B/2d/2F/2 c/2A/2F/2A/2 c/2A/2f/2c/2|
g/2d/2B/2G/2 B/2d/2g/2d/2 b/2f/2d/2A/2 d/2f/2a/2f/2|b/2g/2d/2B/2 d/2g/2b/2g/2c/2a/2e/2c/2 e/2a/2c/2a/2|
d D/2E/2 FD Cc/2d/2 ec|BB,/2C/2 DB, CA/2G/2 FE|DG/2F/2 EG FD/2E/2 FA|GB/2A/2 GF EA/2G/2 FE|
Fd/2c/2 dF cc/2d/2 ec|Bd/2e/2 fd ff/2e/2 dc|BB/2A/2 Bc df/2e/2 df|gd/2c/2 B2 cA/2G/2 Fc|
d d/2c/2 dd c c/2d/2 ec |d d/2e/2 fd c f/2e/2 dc |d B/2A/2 Bc d f/2e/2 dd |e d/2c/2 Bb ac/2B/2 Ac |
d A2d c C/2D/2 Ec |bD/2E/2 Fb aF/2E/2 Dc|BB/2A/2 Bc dF/2E/2 Df|fd/2c/2 BB AA/2G/2 FE|D4
